X:0
T:Tibbie Fowler of the Glen
G:country dance
S:Duke of Perth MS (NLS MS 21715)
M:C|
L:1/8
Q:1/2=96
K:DDor
E|DGGA ^F>GAc|BGGA ^F>EDE|G/G/G GA ^FGAc|dGGA ^F>ED:|
a|fddf  c>dcA|fdde  f>gag|fddf      AFcA|dGGA ^F>ED:|

This is a common feature of Scandinavian music.  It even gets applied to
tunes of non-Scandinavian origin.  In a collection of 1650 by John Playford
there is a tune, probably Scottish, called "Stingo", straightforwardly in
the minor mode:

